public/wins.svg

<svg width="42" height="47" viewBox="0 0 42 47" fill="none" xmlns="http://www.w3.org/2000/svg">
<path d="M30.8038 36.5775C30.7698 36.4715 20.9428 31.0975 20.9428 31.0975L20.7148 28.3575L22.5768 28.1445L31.3558 34.7155" fill="#D4E6FC"/>
<path d="M9.55078 35.7548L15.6097 31.8438L31.0388 40.8358L24.0778 44.7448" fill="#D4E6FC"/>
<path d="M20.9414 28.562L25.2354 25.791L40.6644 34.783L33.7034 38.692" fill="#D4E6FC"/>
<path d="M41.4279 35.6273C41.4279 35.6273 41.4279 35.6273 41.4279 35.6223C41.421 35.4078 41.363 35.198 41.2587 35.0105C41.1543 34.823 41.0066 34.6631 40.8279 34.5443L40.8149 34.5353L40.7999 34.5243L40.7829 34.5153L40.7489 34.4983L40.7159 34.4863H40.7059C36.4529 32.0193 32.1199 29.5203 27.9299 27.1043L25.4539 25.6763C25.3584 25.6136 25.2685 25.5431 25.1849 25.4653L22.7679 23.1793C22.9679 23.1623 23.1679 23.1433 23.3679 23.1213C23.5679 23.1023 23.7809 23.0753 24.0399 23.0363C24.2039 23.0259 24.3673 23.0055 24.5289 22.9753C25.1189 22.8973 25.7499 22.8053 26.3679 22.6663L26.6679 22.6013C26.8679 22.5593 27.0589 22.5183 27.2509 22.4733C29.5515 21.9863 31.7608 21.1389 33.7969 19.9623C34.0579 19.8143 34.3119 19.6623 34.5029 19.5393C34.7179 19.4063 34.9109 19.2713 35.1519 19.1003C35.2189 19.0483 35.2869 19.0003 35.3519 18.9513C35.4519 18.8813 35.5419 18.8123 35.6299 18.7423C35.8949 18.5323 36.1299 18.3423 36.3439 18.1543C36.3499 18.1483 36.3549 18.1423 36.3609 18.1363H36.3659C36.4139 18.0913 36.4659 18.0483 36.5099 18.0053C36.5939 17.9303 36.6759 17.8563 36.7529 17.7793C36.8299 17.7023 36.9239 17.6183 37.0059 17.5363L37.1149 17.4293L37.1279 17.4163C37.2899 17.2433 37.4729 17.0473 37.6359 16.8443C37.7079 16.7633 37.7999 16.6583 37.8869 16.5443C37.9149 16.5053 37.9439 16.4673 37.9739 16.4293C38.0169 16.3733 38.0599 16.3163 38.0989 16.2613C38.1749 16.1613 38.2459 16.0543 38.3209 15.9443L38.3749 15.8643C38.4649 15.7243 38.5459 15.5973 38.6159 15.4643C38.7736 15.2036 38.9123 14.9319 39.0309 14.6513C39.0899 14.5283 39.1399 14.4023 39.1879 14.2803L39.2579 14.0913C39.2949 13.9913 39.3318 13.8913 39.3578 13.7913C39.3668 13.7679 39.3739 13.7438 39.3789 13.7193C39.3789 13.7083 39.3849 13.6973 39.3879 13.6853C39.3979 13.6424 39.411 13.6003 39.4269 13.5593C39.4308 13.5478 39.4342 13.5361 39.4369 13.5243C39.4809 13.3423 39.5209 13.1513 39.5529 12.9773C39.6041 12.6985 39.6402 12.4171 39.6609 12.1343C39.702 11.5078 39.6549 10.8787 39.5209 10.2653C39.5203 10.2284 39.5146 10.1917 39.5039 10.1563C39.5017 10.1401 39.4984 10.124 39.4939 10.1083C39.4789 10.0573 39.4649 10.0083 39.4519 9.9543C39.4299 9.8733 39.4089 9.7923 39.3829 9.7113C39.3407 9.54957 39.2886 9.3906 39.2269 9.2353C39.1387 8.98469 39.0348 8.73987 38.9159 8.5023L38.8949 8.4583C38.8599 8.3863 38.8279 8.3183 38.7949 8.2513C38.7859 8.2313 38.7759 8.2113 38.7659 8.1933V8.18429L38.7609 8.17529C38.7609 8.17529 38.7609 8.1683 38.7609 8.1653L38.5469 7.7973L38.5419 7.7903V7.7823C36.6759 4.9043 34.2809 3.4823 30.7569 1.9823C28.4617 1.13486 26.0706 0.574276 23.6379 0.313293L23.6169 0.306304L23.5839 0.295303L23.5469 0.288299H23.5259C23.2109 0.259299 22.9098 0.229296 22.6078 0.195296H22.5899C22.4499 0.187296 22.3089 0.177297 22.1699 0.167297C21.9949 0.154297 21.8209 0.142307 21.6389 0.134307C21.4389 0.126307 21.2389 0.1183 21.0309 0.1053C20.8529 0.0973001 20.6849 0.0962975 20.5119 0.0962975C20.0516 -0.0208955 19.5683 -0.0132985 19.1119 0.118301C19.0724 0.104372 19.0308 0.0975948 18.9889 0.0982964C18.7779 0.0982964 18.5669 0.109301 18.3559 0.118301H18.3379C18.1179 0.124301 17.8959 0.138295 17.6719 0.156295C17.3719 0.175628 17.0718 0.199635 16.7719 0.228301C16.0909 0.289301 15.4049 0.375305 14.7289 0.485305C13.2367 0.705605 11.765 1.04809 10.3289 1.50931H10.2929L10.2579 1.5163H10.2439C10.2009 1.5293 10.1589 1.54429 10.1169 1.55929C10.0749 1.57429 10.0599 1.58029 10.0169 1.59129C9.64891 1.70929 9.30089 1.8393 8.97589 1.9633C8.60489 2.1113 8.29288 2.2383 7.98688 2.3763C7.64088 2.5203 7.31287 2.67629 6.99487 2.83729C6.61087 3.02029 6.2379 3.2183 5.8949 3.4243C2.0949 5.6193 0.00390625 8.5583 0.00390625 11.7003C0.00390625 14.8423 2.09389 17.7733 5.88489 19.9623C6.81509 20.4976 7.7845 20.9616 8.78485 21.3503H8.79291H8.79987C9.19987 21.5093 9.59987 21.6503 10.0209 21.7853L10.0599 21.7983L10.1789 21.8373L10.1699 21.8463C10.1038 21.9698 10.0318 22.0899 9.95386 22.2063L9.8429 22.7453C9.84198 22.76 9.84198 22.7747 9.8429 22.7893C9.8429 22.7983 9.8429 22.8083 9.8429 22.8173C9.84222 22.8296 9.84222 22.842 9.8429 22.8543C9.8429 22.8653 9.8429 22.8763 9.8429 22.8863C9.8429 22.8963 9.84988 22.9093 9.85388 22.9213C9.85788 22.9333 9.85989 22.9423 9.86389 22.9523C9.86789 22.9623 9.87488 22.9733 9.87988 22.9833C9.88488 22.9933 9.88985 23.0043 9.89685 23.0133C9.90385 23.0223 9.90889 23.0283 9.91589 23.0363C9.92427 23.0475 9.93326 23.0582 9.94287 23.0683C10.1069 23.2263 10.2719 23.3823 10.4369 23.5383C10.6019 23.6943 10.7739 23.8583 10.9369 24.0193V26.6453C10.9368 26.7085 10.9534 26.7707 10.985 26.8254C11.0166 26.8802 11.0621 26.9257 11.1169 26.9573L13.0249 28.0573V28.3293C13.0315 28.6791 13.1065 29.0243 13.2458 29.3453L7.90387 24.2763H7.89789L7.89191 24.2703C7.79188 24.16 7.66212 24.081 7.51825 24.0426C7.37438 24.0043 7.2225 24.0084 7.08087 24.0543L7.06287 24.0613L7.03485 24.0723L7.02185 24.0803L7.00885 24.0863L0.619873 27.7793C0.531875 27.8201 0.454848 27.8814 0.395203 27.9579C0.335557 28.0344 0.29499 28.124 0.276855 28.2193V28.2263L0.15686 28.7743C0.15686 28.7743 0.15686 28.7803 0.15686 28.7833C0.156114 28.7963 0.156114 28.8093 0.15686 28.8223C0.156255 28.8333 0.156255 28.8443 0.15686 28.8553C0.15686 28.8663 0.15686 28.8773 0.15686 28.8893C0.156228 28.9013 0.156228 28.9133 0.15686 28.9253C0.15686 28.9363 0.162894 28.9463 0.165894 28.9573C0.168894 28.9683 0.17188 28.9803 0.17688 28.9913C0.18188 29.0023 0.186895 29.0113 0.191895 29.0213C0.197349 29.0323 0.203362 29.0429 0.2099 29.0533C0.2159 29.0613 0.222882 29.0693 0.228882 29.0773C0.237294 29.0881 0.246286 29.0985 0.255859 29.1083L0.260864 29.1143L1.26086 30.0593V32.6693C1.26082 32.7325 1.27742 32.7947 1.30902 32.8494C1.34062 32.9042 1.3861 32.9497 1.44086 32.9813L3.34088 34.0813V34.3533C3.364 34.8429 3.50418 35.3198 3.74969 35.744C3.99521 36.1682 4.3389 36.5274 4.75189 36.7913L21.0139 46.1823C21.2343 46.3174 21.4864 46.3919 21.7449 46.3983C21.9167 46.3991 22.086 46.3575 22.2379 46.2773L22.2539 46.2683C22.4132 46.1634 22.5443 46.0211 22.6356 45.8537C22.727 45.6863 22.7759 45.499 22.7779 45.3083L24.7649 46.4553C24.8141 46.4843 24.8697 46.5006 24.9268 46.5029C24.9838 46.5052 25.0405 46.4933 25.0919 46.4683C25.1029 46.4683 25.1139 46.4603 25.1249 46.4553L31.5639 42.7333C31.6187 42.7017 31.6641 42.6562 31.6957 42.6014C31.7273 42.5467 31.7439 42.4845 31.7439 42.4213V41.6553C31.7439 41.6553 31.7439 41.6553 31.7439 41.6503C31.7355 41.4379 31.6767 41.2306 31.5724 41.0454C31.4681 40.8602 31.3212 40.7025 31.1439 40.5853L31.1319 40.5773L31.1129 40.5643H31.1069C27.8189 38.6623 24.5332 36.7646 21.2499 34.8713V34.7153L30.6949 40.1703C30.9158 40.3042 31.1677 40.3783 31.4259 40.3853C31.5979 40.3863 31.7675 40.344 31.9189 40.2623C32.0813 40.1588 32.2156 40.0167 32.3096 39.8487C32.4037 39.6806 32.4546 39.4919 32.4579 39.2993L34.4499 40.4443C34.5047 40.4758 34.5667 40.4924 34.6299 40.4924C34.6931 40.4924 34.7551 40.4758 34.8099 40.4443C34.8377 40.4277 34.8633 40.4076 34.8859 40.3843L41.2359 36.7263C41.2907 36.6947 41.3361 36.6492 41.3677 36.5944C41.3993 36.5397 41.4159 36.4775 41.4159 36.4143V35.6493C41.4159 35.6493 41.4279 35.6283 41.4279 35.6273ZM30.2119 40.8593L24.4939 44.1593L22.4599 42.9853C18.2666 40.5646 14.0735 38.1413 9.88086 35.7153L15.5948 32.4213L18.1559 33.8993C22.1746 36.2146 26.1932 38.5346 30.2119 40.8593ZM22.6119 44.3743L9.27087 36.6663L4.37085 32.0143L1.87085 29.6353L1.85785 29.6263L0.909851 28.7263L0.957886 28.5063L0.973877 28.5203L8.57385 35.7293C8.69394 35.8422 8.82847 35.9387 8.97388 36.0163C13.3472 38.5496 17.7192 41.0763 22.0899 43.5963L24.2969 44.8703C24.3816 44.924 24.4519 44.9977 24.5016 45.0848C24.5513 45.172 24.5788 45.27 24.5818 45.3703V45.5033L22.6119 44.3743ZM7.32385 24.7343C7.35947 24.7553 7.393 24.7798 7.42389 24.8073L14.9579 31.9563L9.16986 35.2933C9.13086 35.2633 9.09589 35.2323 9.06989 35.2053L1.7049 28.2053L1.62286 28.1293L1.57086 28.0803L7.32385 24.7343ZM21.2539 23.2693C21.4349 23.2633 21.6149 23.2553 21.7939 23.2463L24.6319 25.9313L21.2539 27.8813V23.2693ZM18.4289 28.8833L11.3839 22.1893L11.6938 22.2703C11.8588 22.3123 12.0249 22.3553 12.2039 22.4063C14.2447 22.9024 16.3302 23.1928 18.4289 23.2733V28.8833ZM15.7789 31.6963C15.6822 31.6406 15.5926 31.5734 15.5119 31.4963L15.2409 31.2393L18.4339 33.0853V33.2343L15.7789 31.6963ZM18.4289 31.1813V32.2453L14.7979 30.1453C14.5166 29.9589 14.2786 29.7144 14.0999 29.4282C13.9212 29.142 13.806 28.8208 13.7619 28.4863L18.4289 31.1813ZM32.2919 38.3543L21.2539 31.9773V31.5103L21.7799 31.8163L23.3578 32.7163L33.9359 38.8233C33.9503 38.8358 33.9657 38.8472 33.9819 38.8573C34.0654 38.9108 34.1346 38.9838 34.1835 39.0701C34.2325 39.1563 34.2597 39.2532 34.2629 39.3523V39.4843L32.2919 38.3543ZM39.8739 34.8343L34.1739 38.1343L23.7189 32.0973L22.1429 31.1973L21.2569 30.6813V28.7183L25.2689 26.4023L27.5688 27.7303C31.6118 30.0513 35.7779 32.4553 39.8799 34.8333L39.8739 34.8343ZM37.9279 8.1593L38.1359 8.5173L38.1429 8.5293C38.1476 8.54124 38.1529 8.55293 38.1589 8.5643C38.1929 8.6283 38.2229 8.6923 38.2589 8.7643L38.2819 8.81129C38.3901 9.02713 38.4846 9.24957 38.5649 9.47729C38.6189 9.61262 38.6643 9.75124 38.7009 9.8923C38.7009 9.9003 38.7008 9.90731 38.7068 9.91431C38.7298 9.98731 38.7499 10.0603 38.7689 10.1323C38.7799 10.1753 38.7919 10.2173 38.8039 10.2603C38.8066 10.2841 38.8116 10.3075 38.8188 10.3303C38.8181 10.3433 38.8181 10.3563 38.8188 10.3693C38.9446 10.929 38.9894 11.5039 38.9519 12.0763C38.9326 12.3336 38.8992 12.5897 38.8519 12.8433C38.8239 13.0023 38.7879 13.1723 38.7519 13.3343C38.7308 13.3929 38.713 13.4527 38.6989 13.5133C38.6989 13.5263 38.6919 13.5393 38.6889 13.5533V13.5623C38.6619 13.6523 38.6269 13.7473 38.5889 13.8423C38.5709 13.8913 38.5529 13.9423 38.5419 13.9753L38.5269 14.0113C38.4809 14.1273 38.4369 14.2363 38.3819 14.3543C38.2726 14.6128 38.145 14.8631 37.9999 15.1033C37.9339 15.2243 37.8629 15.3343 37.7829 15.4603L37.7328 15.5343C37.6648 15.6343 37.6009 15.7343 37.5269 15.8343C37.4879 15.8893 37.4489 15.9403 37.4109 15.9903C37.3729 16.0403 37.3469 16.0753 37.3169 16.1153C37.2469 16.2103 37.1659 16.3023 37.1029 16.3713L37.0899 16.3863C36.9439 16.5683 36.7779 16.7473 36.6169 16.9193L36.5089 17.0253C36.4328 17.1013 36.3549 17.1783 36.2749 17.2493L36.2599 17.2633C36.2229 17.3003 36.1819 17.3363 36.1429 17.3723L21.5599 2.56329V1.37131L23.4489 1.01829C25.8539 1.26964 28.2183 1.81885 30.4879 2.6533C33.8689 4.0763 36.1689 5.43829 37.9339 8.15829L37.9279 8.1593ZM16.8499 0.930297C17.0499 0.912297 17.2498 0.8973 17.4438 0.8833C17.6888 0.8653 17.9319 0.848303 18.1749 0.836303C18.1468 0.905522 18.128 0.978154 18.1189 1.05231L14.4189 1.2633C15.2389 1.1193 16.0519 1.00631 16.8559 0.929305L16.8499 0.930297ZM19.0199 2.8423L19.0069 2.8343L18.9979 2.8293C18.9725 2.81619 18.9495 2.79896 18.9299 2.7783C18.8975 2.74901 18.8722 2.71277 18.8559 2.6723V2.10229L18.8739 2.11031C18.9415 2.1393 19.0109 2.16369 19.0818 2.1833L19.2929 2.24631L19.3359 2.25729C19.5054 2.28913 19.6774 2.30586 19.8499 2.3073C19.9361 2.30755 20.0223 2.30187 20.1078 2.2903C20.1588 2.2853 20.2079 2.2783 20.2509 2.2713L20.3359 2.25931C20.3569 2.25681 20.3776 2.25246 20.3979 2.24631L20.4839 2.2213C20.5918 2.19676 20.6975 2.16333 20.7999 2.12131L20.8409 2.1053H20.8509V2.67529V2.6873C20.7954 2.77934 20.7126 2.85172 20.6139 2.8943C20.2594 3.0562 19.8629 3.10204 19.4809 3.0253C19.3197 2.99292 19.1656 2.93197 19.0259 2.84531L19.0199 2.8423ZM20.2469 0.760299C20.2928 0.78512 20.3437 0.799471 20.3959 0.802306C20.4736 0.825769 20.5487 0.857267 20.6199 0.8963C20.7205 0.94202 20.8004 1.0237 20.8439 1.1253C20.8443 1.13063 20.8443 1.13597 20.8439 1.1413C20.8439 1.1413 20.8439 1.1513 20.8439 1.1563C20.8439 1.1613 20.8439 1.1633 20.8439 1.1673C20.8439 1.1713 20.8439 1.1793 20.8389 1.1853C20.8306 1.20349 20.8202 1.22061 20.8079 1.2363L20.7909 1.25729C20.7423 1.30912 20.6855 1.35271 20.6229 1.38631C20.378 1.50354 20.1099 1.56438 19.8384 1.56438C19.5669 1.56438 19.2988 1.50354 19.0539 1.38631C18.9999 1.35568 18.9504 1.31764 18.9069 1.2733C18.8927 1.25697 18.8803 1.23922 18.8699 1.22031L18.8609 1.2023C18.8533 1.19107 18.8478 1.17852 18.8448 1.1653C18.8448 1.1653 18.8448 1.1593 18.8448 1.1563V1.13431C18.8448 1.07431 18.9059 0.980304 19.0579 0.890304C19.3033 0.765881 19.5758 0.70404 19.8509 0.710296C19.9862 0.712669 20.1209 0.729101 20.2529 0.759307L20.2469 0.760299ZM0.714905 11.6943C0.714905 8.8193 2.6789 6.10231 6.2489 4.03931C6.58223 3.84264 6.93557 3.65497 7.3089 3.4763C7.6199 3.3163 7.92991 3.1763 8.26691 3.0313C8.56691 2.8953 8.87387 2.7713 9.23187 2.6313C9.54387 2.5123 9.8799 2.38731 10.2229 2.27631C10.2659 2.26331 10.3079 2.24831 10.3509 2.23331L10.3949 2.21831H10.4069L18.1249 1.7813V2.70531C18.1248 2.73256 18.1278 2.75973 18.1339 2.7863L18.1429 2.8253C18.1478 2.84616 18.1545 2.86657 18.1629 2.88631C18.2039 3.01616 18.2721 3.1358 18.3629 3.2373L8.74585 20.5583C7.88043 20.2096 7.04041 19.8009 6.23187 19.3353C2.68187 17.2763 0.720849 14.5633 0.719849 11.6923L0.714905 11.6943ZM10.5879 22.6943L10.6339 22.4693L10.6459 22.4763L10.7699 22.5963L10.7819 22.6053L10.8129 22.6353C10.8272 22.6559 10.8436 22.675 10.8619 22.6923L18.1949 29.6503L18.2469 29.7003L18.2539 29.7063L18.2599 29.7123L18.2869 29.7353C18.3289 29.7713 18.3739 29.8103 18.4219 29.8473V30.1213L11.5429 23.6033C11.3429 23.4033 11.1339 23.2103 10.9269 23.0143L10.5879 22.6943ZM11.6629 24.7123L16.2929 29.1123L11.6629 26.4383V24.7123ZM1.9809 30.7353L3.84888 32.5073L6.61188 35.1323L5.96588 34.7603L1.98187 32.4543L1.9809 30.7353ZM21.8989 45.6353C21.8117 45.6634 21.7191 45.6702 21.6288 45.655C21.5385 45.6399 21.4531 45.6033 21.3799 45.5483L5.11786 36.1573C4.83632 35.9704 4.59781 35.7257 4.41815 35.4395C4.23849 35.1533 4.1218 34.8321 4.07587 34.4973L5.56689 35.3563L8.8949 37.2823L22.0709 44.8883V45.1463C22.0845 45.2368 22.0765 45.3292 22.0475 45.4159C22.0185 45.5027 21.9692 45.5813 21.9039 45.6453L21.8989 45.6353ZM25.3109 45.5093V45.3673C25.3029 45.1124 25.2225 44.865 25.0789 44.6543L30.8909 41.3023C30.975 41.4041 31.0238 41.5304 31.0299 41.6623V42.2123L25.3109 45.5093ZM19.1509 33.6343V29.8463C19.1748 29.7972 19.1873 29.7434 19.1873 29.6888C19.1873 29.6342 19.1748 29.5803 19.1509 29.5313V23.2933C19.3579 23.2933 19.5629 23.3003 19.7639 23.3003C20.0279 23.3003 20.2839 23.2953 20.5349 23.2883V34.4343L19.1509 33.6343ZM31.5739 39.6133C31.4871 39.6405 31.3951 39.6465 31.3055 39.6308C31.2159 39.6152 31.1313 39.5783 31.0589 39.5233L21.2589 33.8613V32.8023L31.7589 38.8673V39.1263C31.7719 39.2168 31.7624 39.3091 31.731 39.395C31.6995 39.4809 31.6473 39.5576 31.5789 39.6183L31.5739 39.6133ZM34.9969 39.4713V39.3483C34.9966 39.307 34.9891 39.2661 34.9749 39.2273C34.9509 39.0127 34.8758 38.8069 34.7559 38.6273L40.5699 35.2713C40.6516 35.3755 40.6982 35.503 40.7029 35.6353V36.1833L34.9969 39.4713Z" fill="#2B1F51"/>
</svg>

<svg xmlns="http://www.w3.org/2000/svg" width="42" height="47" fill="none" viewBox="0 0 42 47"><path fill="#d4e6fc" d="M30.804 36.578c-.034-.107-9.861-5.48-9.861-5.48l-.228-2.74 1.862-.213 8.779 6.57M9.55 35.755l6.06-3.911 15.429 8.992-6.961 3.909"/><path fill="#d4e6fc" d="m20.941 28.562 4.294-2.771 15.43 8.992-6.962 3.909"/><path fill="#2b1f51" d="M41.428 35.627v-.005a1.35 1.35 0 0 0-.6-1.078l-.013-.009-.015-.01-.017-.01-.034-.017-.033-.012h-.01a5741 5741 0 0 0-12.776-7.382l-2.476-1.428a2 2 0 0 1-.27-.21l-2.416-2.287a24 24 0 0 0 1.272-.143q.246-.015.489-.06c.59-.079 1.22-.17 1.839-.31l.3-.065c.2-.042.39-.083.583-.128 2.3-.487 4.51-1.334 6.546-2.51a16 16 0 0 0 1.355-.863q.102-.077.2-.149c.1-.07.19-.139.278-.209.265-.21.5-.4.714-.588l.017-.018h.005c.048-.045.1-.088.144-.13q.127-.113.243-.227c.077-.077.17-.16.253-.243l.109-.107.013-.013c.162-.173.345-.369.508-.572a5 5 0 0 0 .338-.415q.066-.085.125-.168c.076-.1.147-.207.222-.317l.054-.08c.09-.14.17-.267.24-.4q.238-.39.416-.813c.059-.123.109-.249.157-.37l.07-.19a3 3 0 0 0 .12-.372c0-.01.007-.022.01-.034a1 1 0 0 1 .039-.126l.01-.035c.044-.182.084-.373.116-.547q.077-.419.108-.843a6.7 6.7 0 0 0-.14-1.869.4.4 0 0 0-.017-.109l-.01-.048a3 3 0 0 1-.042-.154q-.031-.12-.07-.243a4 4 0 0 0-.155-.476 6 6 0 0 0-.311-.733l-.021-.044-.1-.207-.03-.058v-.009l-.004-.009v-.01l-.214-.368-.005-.007v-.008c-1.866-2.878-4.261-4.3-7.785-5.8a29.7 29.7 0 0 0-7.12-1.669l-.02-.007-.033-.01-.037-.008h-.021a45 45 0 0 1-.918-.093h-.018q-.21-.013-.42-.028a17 17 0 0 0-.531-.033c-.2-.008-.4-.016-.608-.029a11 11 0 0 0-.52-.009 2.7 2.7 0 0 0-1.4.022.4.4 0 0 0-.122-.02c-.211 0-.422.011-.633.02h-.018q-.33.01-.666.038-.45.03-.9.072c-.681.061-1.367.147-2.043.257-1.492.22-2.964.563-4.4 1.024h-.036l-.035.007h-.014l-.127.043c-.042.015-.057.021-.1.032a20 20 0 0 0-2.03.785q-.517.218-.992.461c-.384.183-.757.381-1.1.587C2.095 5.62.004 8.558.004 11.7s2.09 6.073 5.88 8.262q1.398.805 2.9 1.388H8.8c.4.16.8.3 1.22.435l.04.013.119.04-.01.008a4 4 0 0 1-.215.36l-.111.54v.14c0 .01.007.023.01.035q.006.017.01.031l.017.031q.007.016.017.03l.019.023.027.032q.246.236.494.47c.165.156.337.32.5.481v2.626a.36.36 0 0 0 .18.312l1.908 1.1v.272c.006.35.082.695.22 1.016l-5.341-5.069h-.006l-.006-.006a.77.77 0 0 0-.811-.216l-.018.007-.028.011-.013.008-.013.006-6.39 3.693a.61.61 0 0 0-.342.44v.007l-.12.548v.151c0 .011.006.021.009.032l.01.034.016.03.018.032.019.024q.012.016.027.031l.005.006 1 .945v2.61a.36.36 0 0 0 .18.312l1.9 1.1v.272a3.07 3.07 0 0 0 1.41 2.438l16.263 9.391c.22.135.472.21.73.216.173.001.342-.04.494-.12l.016-.01a1.16 1.16 0 0 0 .524-.96l1.987 1.147a.35.35 0 0 0 .327.013c.01 0 .022-.008.033-.013l6.439-3.722a.36.36 0 0 0 .18-.312v-.771a1.34 1.34 0 0 0-.6-1.065l-.012-.008-.02-.013h-.005a8333 8333 0 0 0-9.857-5.693v-.156l9.445 5.455c.22.134.473.208.73.215.173.001.342-.041.494-.123a1.17 1.17 0 0 0 .539-.963l1.992 1.145a.36.36 0 0 0 .436-.06l6.35-3.658a.36.36 0 0 0 .18-.312v-.765zM30.212 40.86l-5.718 3.3-2.034-1.174q-6.29-3.63-12.58-7.27l5.715-3.294 2.56 1.478q6.03 3.474 12.057 6.96m-7.6 3.515L9.27 36.666l-4.9-4.652-2.5-2.379-.013-.009-.948-.9.048-.22.016.014 7.6 7.21q.18.17.4.286 6.56 3.8 13.116 7.58l2.207 1.274a.62.62 0 0 1 .285.5v.133zM7.324 24.734q.053.032.1.073l7.534 7.15-5.788 3.336a1 1 0 0 1-.1-.088l-7.365-7-.082-.076-.052-.049zm13.93-1.465q.27-.01.54-.023l2.838 2.685-3.378 1.95zm-2.825 5.614-7.045-6.694.31.081c.165.042.33.085.51.136 2.04.496 4.126.787 6.225.867zm-2.65 2.813a1.4 1.4 0 0 1-.267-.2l-.271-.257 3.193 1.846v.15zm2.65-.515v1.064l-3.631-2.1a2.36 2.36 0 0 1-1.036-1.659zm13.863 7.173-11.038-6.377v-.467l.526.306 1.578.9 10.578 6.107q.022.02.046.034a.61.61 0 0 1 .28.495v.132zm7.582-3.52-5.7 3.3-10.455-6.037-1.576-.9-.886-.516v-1.963l4.012-2.316 2.3 1.328c4.043 2.321 8.209 4.725 12.31 7.103zM37.928 8.16l.208.358.007.012.016.035c.034.064.064.128.1.2l.023.047q.163.325.283.666.082.204.136.415-.001.012.006.022.034.11.062.218.016.064.035.128a.4.4 0 0 0 .015.07v.04a6 6 0 0 1 .033 2.473 12 12 0 0 1-.1.491 2 2 0 0 0-.053.18c0 .012-.007.025-.01.04v.008q-.042.136-.1.28l-.047.133-.015.036c-.046.116-.09.225-.145.343q-.165.39-.382.75c-.066.12-.137.23-.217.356l-.05.074c-.068.1-.132.2-.206.3l-.116.156-.094.125c-.07.095-.151.187-.214.256l-.013.015a10 10 0 0 1-.473.533l-.108.106a6 6 0 0 1-.234.224l-.015.014q-.057.055-.117.11L21.56 2.562V1.371l1.889-.353c2.405.252 4.77.8 7.039 1.635 3.38 1.423 5.68 2.785 7.446 5.505zM16.85.93q.302-.027.594-.047.367-.028.73-.047a.9.9 0 0 0-.055.216l-3.7.211q1.23-.217 2.437-.334zm2.17 1.912-.013-.008-.01-.005a.3.3 0 0 1-.067-.05.3.3 0 0 1-.074-.107v-.57l.018.008q.102.045.208.073l.21.063.044.011q.255.048.514.05.129 0 .258-.017.077-.008.143-.019l.085-.012a.4.4 0 0 0 .062-.013l.086-.025q.162-.036.316-.1l.04-.016h.01v.582a.5.5 0 0 1-.236.207 1.85 1.85 0 0 1-1.133.131 1.4 1.4 0 0 1-.455-.18zM20.247.76q.07.038.149.042.117.036.224.094c.1.046.18.128.224.23v.041q.001.007-.005.018a.3.3 0 0 1-.031.051l-.017.021a.7.7 0 0 1-.168.13 1.82 1.82 0 0 1-1.57 0 .7.7 0 0 1-.146-.114.3.3 0 0 1-.037-.053l-.01-.018a.1.1 0 0 1-.015-.037v-.031c0-.06.06-.154.213-.244a1.7 1.7 0 0 1 .793-.18q.203.005.402.05zM.715 11.694c0-2.875 1.964-5.592 5.534-7.655q.5-.294 1.06-.563c.31-.16.62-.3.958-.445a20.534 20.534 0 0 1 1.956-.755q.064-.02.128-.043l.044-.015h.012l7.718-.437v.924q0 .042.009.081l.009.04q.007.03.02.06c.04.13.11.25.2.351L8.746 20.558a20 20 0 0 1-2.514-1.223C2.682 17.276.72 14.563.72 11.692zm9.873 11 .046-.225.012.007.124.12.012.01.03.03q.023.03.05.056l7.333 6.958.052.05.007.006.006.006.027.023q.063.055.135.112v.274l-6.88-6.518c-.2-.2-.408-.393-.615-.589zm1.075 2.018 4.63 4.4-4.63-2.674zM1.98 30.735l1.868 1.772 2.763 2.625-.646-.372-3.984-2.306zm19.918 14.9a.57.57 0 0 1-.52-.087l-16.261-9.39a2.38 2.38 0 0 1-1.042-1.66l1.49.858 3.329 1.926 13.176 7.606v.258a.58.58 0 0 1-.167.5zm3.412-.126v-.142a1.34 1.34 0 0 0-.232-.713l5.812-3.352a.6.6 0 0 1 .139.36v.55zm-6.16-11.875v-3.788a.36.36 0 0 0 0-.315v-6.238c.207 0 .412.007.613.007q.395 0 .77-.012v11.146zm12.423 5.98a.57.57 0 0 1-.515-.09l-9.8-5.663v-1.059l10.5 6.065v.26a.55.55 0 0 1-.18.491zm3.423-.143v-.123a.4.4 0 0 0-.022-.12c-.024-.215-.1-.421-.22-.6l5.815-3.357a.63.63 0 0 1 .133.364v.548z"/></svg>
